X: 6313
T: Carrickfergus
R: reel
M: 4/4
K: Gmajor
|:d|g2 g2 f2 e<A|A4 A2 A<B|c2 d2 B3A|G4 G4|
G2 A2 B2 c<E|E4 E2 F<D|G2 {AGA}G3 G/F/ G2|G4 G4:|
|:d|g2 a2 b<g (g2|g4) g2 ab|c'4 b2 a<g|a2 f<d4 d2 d2|
d2 g2 a2 b<g|g4 g2 a<b|c'4 b2 b<g|a4 a4|
|:d|g2 g2 f2 e<A|A4 A2 A<B|c2 d2 B3A|G4 G4|
G2 A2 B2 c<E|E4 E2 F<D|G2 {AGA}G3 G/F/ G2|G4 G4:|

